!!!COM: Charles Gounod
!!!CNT: Francais
!!!TXO: Francais
!!!OTL: "Seule! (La pense/e des morts)"
!!!LYR: Lamartine
!!!OPR: 
!!!OPS: Op. 
!!!ONM: No.
!!!ENC: Emily Thomas
!!!YOR: CD Sheet Music French Art Songs, The Ultimate Collection
!!!YOR: CD Sheet Music, LLC 2003
!!!ODT: 1863/
!!NB: Vocal melody and text encoded.
**kern	**silbe
*clefG2	*
*k[f#]	*
*M4/4	*
*MM[Moderato tranquillo]	*
=1	=1
1r	.
=2	=2
1r	.
=3	=3
1r	.
=4	=4
1r	.
=5	=5
1r	.
=6	=6
1r	.
=7	=7
1r	.
=8	=8
1r	.
=9	=9
1r	.
=10	=10
1r	.
=11	=11
1r	.
=12	=12
1r	.
=13	=13
2r	.
4r	.
{4b	{Voi-
=14	=14
4.e	-la\
8e	les
4e	feuil-
8e	-les
8e	sans
=15	=15
2f#	se\-
4f#}	-ve}
8r	.
{8f#	{Qui
=16	=16
4.a	tom-
8a	-bent
4a	sur
8a	le
8a	ga-
=17	=17
2b}	-zon,}
4r	.
{4b	{Voi-
=18	=18
4.c#	-la\
8cc#	le
4dd	vent
8ee	qui
8ee	s'e/-
=19	=19
2ff#	-le\-
8ff#}	-ve}
8r	.
{8ff#	{Et
8ff#	ge/-
=20	=20
2b	-mit
4b	dans
8a#	le
8a#	val-
=21	=21
[1b	-lon!
=22	=22
1b_	|
=23	=23
4b]}	|}
4r	.
2r	.
=24	=24
1r	.
=25	=25
{2ddn	{Voi-
2a	-la\
=26	=26
4g	l'err-
4a	-ante
4b	hi-
4dd	-ron-
=27	=27
2e	-del-
8e}	-le}
8r	.
{4g	{Qui
=28	=28
4f#	ra-
4g	|
4a	-se
4b	du
=29	=29
8cc	bout
8dd	de
2ee	l'ai^-
8dd	|
8cc	|
=30	=30
4b}	-le}
4r	.
{4ee	{L'eau
4dd#	dor-
=31	=31
4ee	-man-
4dd#	-te
4.ee	des
8ff#	ma-
=32	=32
[2ff#	-rais
4ff#]}	|}
4r	.
=33	=33
{2ff#	{Voi-
2dd#	-la\
=34	=34
4ee	l'en-
4ccn	-fant
4b	des
4a	chau-
=35	=35
2b	-mie\-
8e}	-res}
8r	.
{4ddn	{Qui
=36	=36
4cc	gla-
4b	|
4a	-ne
4dd	dans
=37	=37
4cc	les
4b	bruy-
4a	-e\-
4ee	|
=38	=38
4dd#	-res
4ff#	Le
4ee	bois
4f#	tom-
=39	=39
2b	-be/
4.a	des
8f#	fo-
=40	=40
[1e	-re^ts!
=41	=41
1e_	|
=42	=42
4e]}	|}
4r	.
2r	.
=43	=43
1r	.
=44	=44
1r	.
=45	=45
1r	.
=46	=46
2r	.
4r	.
{8b	{La
8b	bre-
=47	=47
2e	-bis
4e	sur
8e	les
8e	col-
=48	=48
2f#	-li-
4f#}	-nes}
8r	.
{8f#	{Ne
=49	=49
4.a	trou-
8a	-ve
4a	plus
8a	le
8a	ga-
=50	=50
2b	-zon
4r	.
{8b	{Son
8b	a-
=51	=51
2cc#	-gneau
4dd	laisse
8ee	aux
8ee	e/-
=52	=52
2ff#	-pi-
4ff#	-nes
8ff#	les
8ff#	de/-
=53	=53
2b	-bris
4b	de
8a#	sa
8a#	toi-
=54	=54
[1b	-son!
=55	=55
1b_	|
=56	=56
4b]}	|}
4r	.
2r	.
=57	=57
1r	.
=58	=58
{2ddn	{La
2a	mer
=59	=59
4g	sol-
4a	-i-
4b	-taire
4dd	et
=60	=60
2e	vi-
4g}	-de}
4r	.
=61	=61
{4f#	{N'est
4g	plus
4a	qu'un
4b	de/-
=62	=62
8cc	-sert
8dd	a-
2ee	-ri-
8dd	|
8cc	|
=63	=63
4b}	-de}
4r	.
{4ee	{Ou\
4dd#	l'oeil
=64	=64
4ee	cherche
4dd#	en
4.ee	vain
8ff#	l'es-
=65	=65
[2ff#	-quif
4ff#]}	|}
4r	.
=66	=66
{2ff#	{Et
2dd#	sur
=67	=67
4ee	la
4ccn	gre\-
4b	-ve
4a	plus
=68	=68
2b	sour-
4e}	-de}
4r	.
=69	=69
{4cc	{La
4b	vague
4a	o-
4dd	-ra-
=70	=70
4cc	-geuse
4b	et
4a	lour-
4ee	|
=71	=71
4dd#	-de
4ff#	N'a
4ee	qu'un
4f#	mur-
=72	=72
2b	-mu-
4.a	-re
8f#	plain-
=73	=73
[1e	-tif!
=74	=74
1e_	|
=75	=75
4e]}	|}
4r	.
2r	.
=76	=76
1r	.
=77	=77
1r	.
=78	=78
1r	.
=79	=79
2r	.
4r	.
{8b	{C'est
8b	a-
=80	=80
2e	-lors
4e	que
8e	ma
8e	pau-
=81	=81
2f#	-pie\-
4f#}	-re}
8r	.
{8f#	{Vous
=82	=82
4.a	vit
8a	pa^-
4a	-lir
8a	et
8b	mou-
=83	=83
2b}	-rir,}
4r	.
{8b	{Tend-
8b	-res
=84	=84
2cc#	fruits
4dd	qu'a\
8ee	la
8ee	lu-
=85	=85
2ff#	-mie\-
8ff#}	-re}
8r	.
{8ff#	{Dieu
8ff#	n'a
=86	=86
2b	pas
4b	lais-
8a#	-se/
8a#	mu-
=87	=87
[1b	-rir!
=88	=88
1b_	|
=89	=89
4b]}	|}
4r	.
2r	.
=90	=90
1r	.
=91	=91
{2dd	{Quoi-
2a	-que
=92	=92
4g	je-
4a	-une
4b	sur
4dd	la
=93	=93
2e	ter-
4g}	-re}
4r	.
=94	=94
{4f#	{Je
4g	suis
4a	de/-
4b	-ja\
=95	=95
8cc	sol-
8dd	-i-
2ee	-tai-
8dd	|
8cc	|
=96	=96
4b}	-re}
4r	.
{4ee	{Par-
4dd#	-mi
=97	=97
4ee	ceux
4dd#	de
4.ee	ma
8ff#	sai-
=98	=98
[2ff#	-son
4ff#]}	|}
4r	.
=99	=99
{2ff#	{Et
2dd#	quand
=100	=100
4ee	je
4ccn	dis
4b	en
4a	moi
=101	=101
2b	me^-
4e}	-me:}
4r	.
=102	=102
{4cc	{"Ou\
4b	sont
4a	ceux
4dd	que
=103	=103
4cc	ton
4b	coeur
4a	ai-
4ee	|
=104	=104
4dd#}	-me?"}
4r	.
{4ee	{Je
4f#	re-
=105	=105
2b	-gar-
4b	-de
8a	le
8f#	ga-
=106	=106
[1e	-zon!!!
=107	=107
1e_	|
=108	=108
4e]}	|}
4r	.
2r	.
==	==
*-	*-
